public/images/discord-icon.svg

<svg width="24" height="24" viewBox="0 0 24 24" fill="none" xmlns="http://www.w3.org/2000/svg">
<g id="Group 125">
<path id="Vector" d="M8.57512 17.4501C8.31024 17.9838 8.0027 18.4943 7.65561 18.9764C7.64846 18.9861 7.63857 18.9933 7.62728 18.997C7.61599 19.0008 7.60384 19.001 7.59246 18.9975C5.97644 18.4901 4.45661 17.7061 3.0978 16.6791C3.09128 16.6739 3.08584 16.6674 3.08182 16.66C3.07779 16.6526 3.07527 16.6445 3.07438 16.6361C2.76079 13.2091 3.40004 9.73913 5.73359 6.18168C5.73929 6.17226 5.74772 6.16488 5.75771 6.16055C6.9246 5.61348 8.15624 5.22367 9.42164 5.00096C9.43312 4.99911 9.44488 5.00083 9.45538 5.00591C9.46589 5.01098 9.47465 5.01916 9.48054 5.02939C9.65209 5.3392 9.80677 5.65844 9.94386 5.98565C11.3077 5.7743 12.6951 5.7743 14.059 5.98565C14.1951 5.65927 14.3474 5.34011 14.5151 5.02939C14.5207 5.01894 14.5294 5.01056 14.54 5.00545C14.5506 5.00035 14.5624 4.99877 14.5739 5.00096C15.8392 5.22414 17.0708 5.61392 18.2378 6.16052C18.2479 6.16475 18.2562 6.1725 18.2612 6.1824C20.2939 9.23331 21.2979 12.6749 20.9225 16.6368C20.9217 16.6452 20.9193 16.6533 20.9152 16.6605C20.9112 16.6678 20.9057 16.6741 20.899 16.6791C19.5385 17.7077 18.016 18.4917 16.3971 18.9974C16.3857 19.001 16.3734 19.0008 16.3621 18.9969C16.3508 18.9929 16.3409 18.9855 16.334 18.9755C15.9916 18.4907 15.6845 17.9808 15.4152 17.4501M7.47114 16.3576C10.4169 17.73 13.6062 17.73 16.5171 16.3576" stroke="white" stroke-width="2" stroke-linecap="round" stroke-linejoin="round"/>
<circle id="Ellipse 21" cx="9" cy="12" r="2" fill="white"/>
<circle id="Ellipse 22" cx="15" cy="12" r="2" fill="white"/>
</g>
</svg>

<svg xmlns="http://www.w3.org/2000/svg" width="24" height="24" fill="none"><path stroke="#fff" stroke-linecap="round" stroke-linejoin="round" stroke-width="2" d="M8.575 17.45a10.924 10.924 0 0 1-.92 1.526.057.057 0 0 1-.063.021 14.816 14.816 0 0 1-4.494-2.318.063.063 0 0 1-.024-.043C2.761 13.21 3.4 9.74 5.734 6.182a.053.053 0 0 1 .024-.021A14.587 14.587 0 0 1 9.422 5a.057.057 0 0 1 .059.028c.171.31.326.63.463.957a13.433 13.433 0 0 1 4.115 0c.136-.327.288-.646.456-.957A.056.056 0 0 1 14.574 5a14.61 14.61 0 0 1 3.664 1.16c.01.004.018.012.023.021 2.033 3.051 3.037 6.493 2.662 10.455a.06.06 0 0 1-.024.042 14.765 14.765 0 0 1-4.502 2.318.056.056 0 0 1-.063-.021c-.342-.485-.65-.995-.919-1.526m-7.944-1.092c2.946 1.372 6.135 1.372 9.046 0"/><circle cx="9" cy="12" r="2" fill="#fff"/><circle cx="15" cy="12" r="2" fill="#fff"/></svg>
